!!!OTL: London Bridge
!!!COM: unknown
!!!ODT: unknown
!!!YOR: The Folksong Fake Book
!!!YOY: 2000
!!!AST: Children's song
!!!YEC: Brian Luke, 2001
**kern	**harm
*k[f#c#]	*k[f#c#]
*M2/4	*M2/4
*D:	*D:
*>A	*>A
=1	=1
8.a	I
16b	.
8a	.
8g	.
=2	=2
8f#	.
8g	.
4a	.
=3	=3
8e	V7
8f#	.
4g	.
=4	=4
8f#	I;
8g	.
4a	.
=5	=5
8.a	I
16b	.
8a	.
8g	.
=6	=6
8f#	.
8g	.
4a	.
=7	=7
4e	V7
4a	.
=8	=8
8f#	I;
4.d	.
*-	*-
